components/Company/logos/logo-10xgenomics.svg

<svg height="140" viewBox="0 0 400 140" width="400" xmlns="http://www.w3.org/2000/svg"><g fill="none" transform="translate(100 32)"><path d="m152.058098 21-12.055854 16.9607739c-.87001 1.2226805-1.178723 2.65306-.906093 3.50345.677565 2.1161779 1.68389 4.5027563 1.68389 4.5027563s2.634086.0901335 4.89932-.027432c.914112-.0470261 2.17703-.8307957 3.04704-2.0495574l16.273599-22.8899908z" fill="#fac319"/><path d="m121.937892 21 12.059864 16.9595135c.87001 1.2228722 1.178723 2.653476.906093 3.5039993-.673556 2.1204291-1.68389 4.5034622-1.68389 4.5034622s-2.634086.0901476-4.89932-.0274362c-.914112-.0470336-2.17703-.830926-3.04704-2.0498788l-16.273599-22.88966z" fill="#71be4b"/><path d="m95.21338 12.3230924c-4.7348602-8.29141569-12.857862-12.3230924-24.8269675-12.3230924-10.618506 0-18.1088994 3.04211847-22.9485475 9.29643574-4.7736704 6.16541166-7.8513295 15.72083336-7.8513295 29.20356426s3.1048263 23.0342871 7.8629726 29.1996988c4.828005 6.2581827 12.3183984 9.3003012 22.9369044 9.3003012 10.727175 0 18.2913081-3.1696787 23.1464802-9.7409639 4.5679757-6.1615461 7.4671073-15.3033634 7.4671073-28.7706325 0-8.0981426-1.3428374-18.3918675-5.78662-26.1769076m-24.8386106-2.82565263c12.9199585 0 20.3055641 4.94392573 20.3055641 28.99096383 0 24.0470382-7.3739625 28.8479418-20.3055641 28.8479418-13.0480325 0-20.5034967-4.7893072-20.5034967-28.8479418 0-24.0586345 7.4554642-28.99096383 20.5034967-28.99096383m-70.3747694 5.20291163 6.88883338 7.5376506.80725485-.5798193c.8150169-.552761 5.88752687-4.402761 8.68187057-6.5133032v60.7148093h10.2808561v-74.44492975h-8.8603981z" fill="#525151"/><path d="m152.611298 76-12.653271-18.1669194c-.828214-1.1877049-1.127292-2.581635-.866558-3.4141741.648001-2.0622528 1.610417-4.3841967 1.610417-4.3841967s2.519151-.0916556 4.685544.022914c.874226.0496468 2.082038.8096251 2.910253 1.99733l16.702317 23.9450462z" fill="#00a1df"/><path d="m120.327684 75.9923955 12.717342-18.1936802c.828977-1.1824941 1.12313-2.5703088.863358-3.3991954-.645608-2.0532053-1.604471-4.3649623-1.604471-4.3649623s-2.50985-.0912536-4.668246.0228134c-.870998.049429-2.074351.8060731-2.899508 1.9885673l-16.736159 23.9540617z" fill="#e84b50"/><path d="m201.277424 49.2055152h8.632459v-2.9625489h-8.632459v-4.941308h10.098349v-2.9886343h-13.511002v19.3441402h13.59244v-2.9886343h-10.179787zm28.871815 2.5340041-8.92331-13.4264953h-3.210996v19.3441402h3.273044v-13.5531955l8.973725 13.5531955h3.187727v-19.3441402h-3.30019zm18.211155-13.7395193c-3.909039 0-7.868491 2.4445687-7.868491 7.1138439v6.20831c0 4.6096516 3.994355 6.6741196 7.949929 6.6741196s7.837467-2.4557481 7.837467-7.1436557v-5.9623625c0-4.0506801-3.253654-6.8902553-7.918905-6.8902553zm-4.459717 7.0355879c0-2.7948575 2.214346-4.0469537 4.405424-4.0469537 2.788293 0 4.591569 1.4905907 4.591569 3.8121856v6.2083101c0 2.7426868-2.237614 3.972424-4.455838 3.972424-2.71461 0-4.541155-1.5539407-4.541155-3.8680827zm28.778743 4.3525246-5.48739-11.0490031h-3.870258v19.3180548h3.30019v-12.9830446l4.711788 9.4093535h2.590513l4.680763-9.3981741v12.9718652h3.327336v-19.3180548h-3.897404zm36.046142-11.3881125c-4.630349 0-7.864613 2.8917459-7.864613 7.0355879v6.286566c0 3.9910565 3.191606 6.6741196 7.946051 6.6741196 4.397668 0 7.368227-2.463201 7.368227-6.1263275v-1.0098752h-3.273044v.6968511c0 2.079374-1.60162 3.424632-4.079671 3.424632-2.71461 0-4.537276-1.5539407-4.537276-3.8680827v-6.1561394c0-2.7426867 2.210468-3.9686976 4.401546-3.9686976 1.939007 0 4.215401.8943544 4.215401 3.4209056v.8831749h3.249776v-1.1701136c0-3.6035029-3.048119-6.1226011-7.426397-6.1226011zm22.872527 8.7758524-3.556139-.9390721c-2.524587-.6782187-2.819316-1.751444-2.819316-2.4967393 0-1.8147941 1.803277-2.4557481 3.342848-2.4557481 1.970032 0 3.342849.7452953 4.091305 2.1986212l.151243.2981181 2.966681-1.1403018-.124097-.32793c-.930723-2.4855599-3.490213-3.9128004-7.030839-3.9128004-3.974965 0-6.751623 2.2806037-6.751623 5.5487237 0 2.7389603 1.438743 4.3450717 4.653617 5.2170672l3.521237.9129868c1.85369.5328862 2.609903 1.3042668 2.609903 2.6532514 0 1.9899385-2.136786 2.6942426-3.967208 2.6942426-2.326809 0-4.079671-1.0657724-4.781592-2.9215577l-.127974-.3428359-3.102411 1.117943.09695.320477c.919089 2.9811813 3.831478 4.7698901 7.798686 4.7698901 4.3744 0 7.430275-2.4110304 7.430275-5.8654742.027147-2.7948575-1.462011-4.5910192-4.401546-5.3288616zm-41.188388-8.436743h3.408775v19.3180548h-3.408775zm-108.541738 12.0663313h5.212051v1.1775666c0 2.5079187-2.22598 3.3985466-4.130085 3.3985466-2.71461 0-4.541155-1.5539407-4.541155-3.8680827v-6.1561394c0-2.7426867 2.214347-3.9686976 4.405425-3.9686976 2.035957 0 4.211523.8570897 4.211523 3.2643936v.8570896h3.276922v-1.1440283c0-4.1214832-3.75004-5.9623626-7.461299-5.9623626-4.614837 0-7.841345 2.8917458-7.841345 7.0355878v6.2865661c0 3.9910564 3.195484 6.6741196 7.949929 6.6741196 4.428692 0 7.403129-2.463201 7.403129-6.1263276v-4.4941308h-8.485095z" fill="#fff"/></g></svg>

<?xml version="1.0" encoding="UTF-8"?>
<svg width="400px" height="140px" viewBox="0 0 400 140" version="1.1" xmlns="http://www.w3.org/2000/svg" xmlns:xlink="http://www.w3.org/1999/xlink">
    <title>Artboard</title>
    <g id="Artboard" stroke="none" stroke-width="1" fill="none" fill-rule="evenodd">
        <g id="10xgenomics" transform="translate(100.000000, 32.000000)" fill-rule="nonzero">
            <path d="M152.058098,21 L140.002244,37.9607739 C139.132234,39.1834544 138.823521,40.6138339 139.096151,41.4642239 C139.773716,43.5804018 140.780041,45.9669802 140.780041,45.9669802 C140.780041,45.9669802 143.414127,46.0571137 145.679361,45.9395482 C146.593473,45.8925221 147.856391,45.1087525 148.726401,43.8899908 L165,21 L152.058098,21 Z" id="Path" fill="#FAC319"></path>
            <path d="M121.937892,21 L133.997756,37.9595135 C134.867766,39.1823857 135.176479,40.6129895 134.903849,41.4635128 C134.230293,43.5839419 133.219959,45.966975 133.219959,45.966975 C133.219959,45.966975 130.585873,46.0571226 128.320639,45.9395388 C127.406527,45.8925052 126.143609,45.1086128 125.273599,43.88966 L109,21 L121.937892,21 Z" id="Path" fill="#71BE4B"></path>
            <path d="M95.21338,12.3230924 C90.4785198,4.03167671 82.355518,0 70.3864125,0 C59.7679065,0 52.2775131,3.04211847 47.437865,9.29643574 C42.6641946,15.4618474 39.5865355,25.0172691 39.5865355,38.5 C39.5865355,51.9827309 42.6913618,61.5342871 47.4495081,67.6996988 C52.2775131,73.9578815 59.7679065,77 70.3864125,77 C81.1135875,77 88.6777206,73.8303213 93.5328927,67.2590361 C98.1008684,61.09749 101,51.9556727 101,38.4884036 C101,30.390261 99.6571626,20.0965361 95.21338,12.311496 M70.3747694,9.48584337 C83.2947279,9.48584337 90.6803335,14.4297691 90.6803335,38.4768072 C90.6803335,62.5238454 83.306371,67.324749 70.3747694,67.324749 C57.3267369,67.324749 49.8712727,62.5354418 49.8712727,38.4768072 C49.8712727,14.4181727 57.3267369,9.48584337 70.3747694,9.48584337 M0,14.688755 L6.88883338,22.2264056 L7.69608823,21.6465863 C8.51110513,21.0938253 13.5836151,17.2438253 16.3779588,15.1332831 L16.3779588,75.8480924 L26.6588149,75.8480924 L26.6588149,1.40316265 L17.7984168,1.40316265 L0,14.688755 Z" id="Shape" fill="#525151"></path>
            <path d="M152.611298,76 L139.958027,57.8330806 C139.129813,56.6453757 138.830735,55.2514456 139.091469,54.4189065 C139.73947,52.3566537 140.701886,50.0347098 140.701886,50.0347098 C140.701886,50.0347098 143.221037,49.9430542 145.38743,50.0576238 C146.261656,50.1072706 147.469468,50.8672489 148.297683,52.0549538 L165,76 L152.611298,76 Z" id="Path" fill="#00A1DF"></path>
            <path d="M120.327684,75.9923955 L133.045026,57.7987153 C133.874003,56.6162212 134.168156,55.2284065 133.908384,54.3995199 C133.262776,52.3463146 132.303913,50.0345576 132.303913,50.0345576 C132.303913,50.0345576 129.794063,49.943304 127.635667,50.057371 C126.764669,50.1068 125.561316,50.8634441 124.736159,52.0459383 L108,76 L120.327684,75.9923955 Z" id="Path" fill="#E84B50"></path>
            <path d="M201.277424,49.2055152 L209.909883,49.2055152 L209.909883,46.2429663 L201.277424,46.2429663 L201.277424,41.3016583 L211.375773,41.3016583 L211.375773,38.313024 L197.864771,38.313024 L197.864771,57.6571642 L211.457211,57.6571642 L211.457211,54.6685299 L201.277424,54.6685299 L201.277424,49.2055152 L201.277424,49.2055152 Z M230.149239,51.7395193 L221.225929,38.313024 L218.014933,38.313024 L218.014933,57.6571642 L221.287977,57.6571642 L221.287977,44.1039687 L230.261702,57.6571642 L233.449429,57.6571642 L233.449429,38.313024 L230.149239,38.313024 L230.149239,51.7395193 L230.149239,51.7395193 Z M248.360394,38 C244.451355,38 240.491903,40.4445687 240.491903,45.1138439 L240.491903,51.3221539 C240.491903,55.9318055 244.486258,57.9962735 248.441832,57.9962735 C252.397406,57.9962735 256.279299,55.5405254 256.279299,50.8526178 L256.279299,44.8902553 C256.279299,40.8395752 253.025645,38 248.360394,38 L248.360394,38 Z M243.900677,45.0355879 C243.900677,42.2407304 246.115023,40.9886342 248.306101,40.9886342 C251.094394,40.9886342 252.89767,42.4792249 252.89767,44.8008198 L252.89767,51.0091299 C252.89767,53.7518167 250.660056,54.9815539 248.441832,54.9815539 C245.727222,54.9815539 243.900677,53.4276132 243.900677,51.1134712 L243.900677,45.0355879 Z M272.67942,49.3881125 L267.19203,38.3391094 L263.321772,38.3391094 L263.321772,57.6571642 L266.621962,57.6571642 L266.621962,44.6741196 L271.33375,54.0834731 L273.924263,54.0834731 L278.605026,44.685299 L278.605026,57.6571642 L281.932362,57.6571642 L281.932362,38.3391094 L278.034958,38.3391094 L272.67942,49.3881125 L272.67942,49.3881125 Z M308.725562,38 C304.095213,38 300.860949,40.8917459 300.860949,45.0355879 L300.860949,51.3221539 C300.860949,55.3132104 304.052555,57.9962735 308.807,57.9962735 C313.204668,57.9962735 316.175227,55.5330725 316.175227,51.869946 L316.175227,50.8600708 L312.902183,50.8600708 L312.902183,51.5569219 C312.902183,53.6362959 311.300563,54.9815539 308.822512,54.9815539 C306.107902,54.9815539 304.285236,53.4276132 304.285236,51.1134712 L304.285236,44.9573318 C304.285236,42.2146451 306.495704,40.9886342 308.686782,40.9886342 C310.625789,40.9886342 312.902183,41.8829886 312.902183,44.4095398 L312.902183,45.2927147 L316.151959,45.2927147 L316.151959,44.1226011 C316.151959,40.5190982 313.10384,38 308.725562,38 L308.725562,38 Z M331.598089,46.7758524 L328.04195,45.8367803 C325.517363,45.1585616 325.222634,44.0853363 325.222634,43.340041 C325.222634,41.5252469 327.025911,40.8842929 328.565482,40.8842929 C330.535514,40.8842929 331.908331,41.6295882 332.656787,43.0829141 L332.80803,43.3810322 L335.774711,42.2407304 L335.650614,41.9128004 C334.719891,39.4272405 332.160401,38 328.619775,38 C324.64481,38 321.868152,40.2806037 321.868152,43.5487237 C321.868152,46.287684 323.306895,47.8937954 326.521769,48.7657909 L330.043006,49.6787777 C331.896696,50.2116639 332.652909,50.9830445 332.652909,52.3320291 C332.652909,54.3219676 330.516123,55.0262717 328.685701,55.0262717 C326.358892,55.0262717 324.60603,53.9604993 323.904109,52.104714 L323.776135,51.7618781 L320.673724,52.8798211 L320.770674,53.2002981 C321.689763,56.1814794 324.602152,57.9701882 328.56936,57.9701882 C332.94376,57.9701882 335.999635,55.5591578 335.999635,52.104714 C336.026782,49.3098565 334.537624,47.5136948 331.598089,46.7758524 L331.598089,46.7758524 Z M290.409701,38.3391094 L293.818476,38.3391094 L293.818476,57.6571642 L290.409701,57.6571642 L290.409701,38.3391094 Z M181.867963,50.4054407 L187.080014,50.4054407 L187.080014,51.5830073 C187.080014,54.090926 184.854034,54.9815539 182.949929,54.9815539 C180.235319,54.9815539 178.408774,53.4276132 178.408774,51.1134712 L178.408774,44.9573318 C178.408774,42.2146451 180.623121,40.9886342 182.814199,40.9886342 C184.850156,40.9886342 187.025722,41.8457239 187.025722,44.2530278 L187.025722,45.1101174 L190.302644,45.1101174 L190.302644,43.9660891 C190.302644,39.8446059 186.552604,38.0037265 182.841345,38.0037265 C178.226508,38.0037265 175,40.8954723 175,45.0393143 L175,51.3258804 C175,55.3169368 178.195484,58 182.949929,58 C187.378621,58 190.353058,55.536799 190.353058,51.8736724 L190.353058,47.3795416 L181.867963,47.3795416 L181.867963,50.4054407 Z" id="Shape" fill="#FFFFFF"></path>
        </g>
    </g>
</svg>
